src/lib/packages/icons/src/assets/line/shield-question.svg

<svg width="24" height="24" viewBox="0 0 24 24" fill="none" xmlns="http://www.w3.org/2000/svg">
<path d="M12 22.7501C11.92 22.7501 11.8399 22.7371 11.7629 22.7111C10.1739 22.1811 2.25 19.1221 2.25 10.8881V5.00012C2.25 4.64312 2.50203 4.33401 2.85303 4.26501C7.73303 3.28901 9.46305 2.43111 11.6541 1.34411C11.8661 1.23911 12.146 1.22519 12.356 1.33019C14.517 2.41919 16.2239 3.28001 21.1479 4.26501C21.4989 4.33501 21.751 4.64312 21.751 5.00012V10.889C21.751 19.123 13.827 22.182 12.238 22.712C12.16 22.737 12.08 22.7501 12 22.7501ZM3.75 5.61218V10.8881C3.75 17.7531 10.168 20.5482 12 21.2052C13.832 20.5482 20.25 17.7521 20.25 10.8881V5.61218C15.829 4.68718 13.9699 3.81901 12.0149 2.83801C9.93789 3.86501 8.135 4.69618 3.75 5.61218ZM12.71 12.6161C12.718 12.5961 12.798 12.4151 13.344 12.0521C14.328 11.3981 14.769 10.4591 14.584 9.40612C14.397 8.34712 13.528 7.47811 12.47 7.29211C11.692 7.15611 10.908 7.36511 10.313 7.86511C9.71799 8.36511 9.375 9.09809 9.375 9.87609C9.375 10.2901 9.711 10.6261 10.125 10.6261C10.539 10.6261 10.875 10.2901 10.875 9.87609C10.875 9.54309 11.0211 9.22903 11.2771 9.01403C11.5361 8.79703 11.87 8.70814 12.21 8.77013C12.652 8.84813 13.0289 9.22513 13.1069 9.66613C13.1569 9.95213 13.15 10.3801 12.512 10.8041C12.083 11.0901 11.4911 11.5391 11.2881 12.1371C11.1571 12.5241 11.366 12.9332 11.751 13.0712C11.832 13.1002 11.9141 13.1132 11.9961 13.1132C12.3051 13.1122 12.597 12.9181 12.71 12.6161ZM13.02 15.0001C13.02 14.4481 12.573 14.0001 12.02 14.0001H12.01C11.458 14.0001 11.0149 14.4481 11.0149 15.0001C11.0149 15.5521 11.468 16.0001 12.02 16.0001C12.572 16.0001 13.02 15.5521 13.02 15.0001Z" fill="currentColor"/>
</svg>

<svg xmlns="http://www.w3.org/2000/svg" width="24" height="24" fill="none"><path fill="currentColor" d="M12 22.75a.741.741 0 0 1-.237-.039c-1.59-.53-9.513-3.589-9.513-11.823V5c0-.357.252-.666.603-.735 4.88-.976 6.61-1.834 8.801-2.92a.822.822 0 0 1 .702-.015c2.161 1.09 3.868 1.95 8.792 2.935A.75.75 0 0 1 21.75 5v5.889c0 8.234-7.924 11.293-9.513 11.823a.78.78 0 0 1-.238.038ZM3.75 5.612v5.276c0 6.865 6.418 9.66 8.25 10.317 1.832-.657 8.25-3.453 8.25-10.317V5.612c-4.421-.925-6.28-1.793-8.235-2.774-2.077 1.027-3.88 1.858-8.265 2.774Zm8.96 7.004c.008-.02.088-.2.634-.564.984-.654 1.425-1.593 1.24-2.646a2.647 2.647 0 0 0-2.114-2.114 2.633 2.633 0 0 0-2.157.573 2.622 2.622 0 0 0-.938 2.011.75.75 0 0 0 1.5 0A1.123 1.123 0 0 1 12.21 8.77c.442.078.819.455.897.896.05.286.043.714-.595 1.138-.429.286-1.02.735-1.224 1.333a.74.74 0 0 0 .708.976.77.77 0 0 0 .714-.497ZM13.02 15a1 1 0 0 0-1-1h-.01a.996.996 0 0 0-.995 1c0 .552.453 1 1.005 1a1 1 0 0 0 1-1Z"/></svg>
